X: 10603
M: C|
L: 1/8
K: Bb
uB |\
uB |\
fB (e/d/c/B/) (fB)dB | cF (B/A/G/F/) (cF)AF | fB (e/d/c/B/) (fB)dB | F(dAc) BB,B,B |
fB (e/d/c/B/) (fB)dB | cF (B/A/G/F/) (cF)AF | (fB) (gB) (aB) (bB) | dB (d/c/B/A/) "^D.C."BB,-"^Fine"B, |]


